X:57
T:Hunting Squeril (sic). VWMLa.057
T:Hunt The Squirl,aka. VWMLa.057
R:Jig
S:Anon. MS, late 18thC, Vaughan Williams Mem. Library
N:Spelling again ..
O:England;Yorkshire
Z:vmp/efdss.Simon Wilson. Reviewed PJH 2008.
M:6/8
L:1/8
Q:3/8=120
K:A
A2e e2f|e3 c3|ABc c2B|ABc c2B|\
A2e e2f|e3 c3|ABc c2B|A3 A3:|
|:d2e fef|d2e fef|d2e f2g|a3 agf|\
e2c e2c|e2c e2f|edc B2c|A3 A3:|

